packages/core/src/svgs/wallets/branded/coin98.svg

<svg width="24" height="24" viewBox="0 0 24 24" fill="none" xmlns="http://www.w3.org/2000/svg">
<path d="M18.3481 2H5.65191C3.62625 2 2 3.62625 2 5.65191V18.3481C2 20.3737 3.62625 22 5.65191 22H18.3481C20.3452 22 22 20.3737 22 18.3481V5.65191C22 3.62625 20.3737 2 18.3481 2ZM15.2668 6.99286C16.7503 6.99286 17.9487 8.19114 17.9487 9.67474C17.9487 10.1312 17.8345 10.5592 17.6348 10.9586C17.2924 10.7019 16.9215 10.4736 16.5221 10.3309C16.6362 10.1312 16.6933 9.903 16.6933 9.67474C16.6933 8.90443 16.0656 8.27674 15.2953 8.27674C14.525 8.27674 13.8973 8.90443 13.8973 9.67474C13.8973 9.903 13.9543 10.1312 14.0685 10.3309C13.6691 10.4736 13.2696 10.6733 12.9558 10.9586C12.7275 10.5592 12.6419 10.1312 12.6419 9.67474C12.5849 8.19114 13.7832 6.99286 15.2668 6.99286ZM8.73323 17.0071C7.24966 17.0071 6.05134 15.8089 6.05134 14.3253H7.33523C7.33523 15.0956 7.96291 15.7233 8.73323 15.7233C9.50357 15.7233 10.1312 15.0956 10.1312 14.3253H11.4151C11.4151 15.8089 10.2168 17.0071 8.73323 17.0071ZM8.73323 13.2411C7.0214 13.2411 5.6234 11.8431 5.6234 10.1312C5.6234 8.4194 7.0214 6.99286 8.73323 6.99286C10.4451 6.99286 11.8716 8.39086 11.8716 10.1312C11.8431 11.8431 10.4451 13.2411 8.73323 13.2411ZM15.2668 17.0071C13.5549 17.0071 12.1284 15.6091 12.1284 13.8973C12.1284 12.1569 13.5264 10.7589 15.2668 10.7589C16.9786 10.7589 18.3766 12.1569 18.3766 13.8973C18.3766 15.6091 16.9786 17.0071 15.2668 17.0071ZM17.1213 13.8688C17.1213 14.8959 16.2939 15.6947 15.2668 15.6947C14.2397 15.6947 13.4123 14.8673 13.4123 13.8688C13.4123 12.8417 14.2397 12.0143 15.2668 12.0143C16.2939 12.0428 17.1213 12.8702 17.1213 13.8688ZM10.5592 10.1312C10.5592 11.1583 9.7318 11.9857 8.70471 11.9857C7.6776 11.9857 6.8502 11.1583 6.8502 10.1312C6.8502 9.10414 7.6776 8.27674 8.70471 8.27674C9.76034 8.27674 10.5592 9.10414 10.5592 10.1312Z" fill="#D9B432"/>
</svg>

<svg xmlns="http://www.w3.org/2000/svg" width="24" height="24" fill="none" viewBox="0 0 24 24">
    <path fill="#D9B432" d="M18.348 2H5.652A3.64 3.64 0 0 0 2 5.652v12.696A3.64 3.64 0 0 0 5.652 22h12.696A3.66 3.66 0 0 0 22 18.348V5.652A3.64 3.64 0 0 0 18.348 2m-3.081 4.993a2.68 2.68 0 0 1 2.682 2.682c0 .456-.115.884-.314 1.284-.343-.257-.713-.485-1.113-.628.114-.2.171-.428.171-.656a1.4 1.4 0 0 0-1.398-1.398 1.4 1.4 0 0 0-1.398 1.398c0 .228.057.456.172.656-.4.143-.8.342-1.113.628-.229-.4-.314-.828-.314-1.284-.057-1.484 1.141-2.682 2.625-2.682M8.733 17.007a2.68 2.68 0 0 1-2.682-2.682h1.284a1.4 1.4 0 0 0 1.398 1.398 1.4 1.4 0 0 0 1.398-1.398h1.284a2.68 2.68 0 0 1-2.682 2.682m0-3.766a3.117 3.117 0 0 1-3.11-3.11c0-1.712 1.398-3.138 3.11-3.138a3.15 3.15 0 0 1 3.139 3.138c-.029 1.712-1.427 3.11-3.139 3.11m6.534 3.766c-1.712 0-3.139-1.398-3.139-3.11a3.13 3.13 0 0 1 3.139-3.138c1.712 0 3.11 1.398 3.11 3.138a3.117 3.117 0 0 1-3.11 3.11m1.854-3.138c0 1.027-.827 1.826-1.854 1.826s-1.855-.828-1.855-1.826a1.85 1.85 0 0 1 1.855-1.855c1.027.029 1.854.856 1.854 1.855M10.56 10.13a1.85 1.85 0 0 1-1.854 1.855A1.85 1.85 0 0 1 6.85 10.13a1.85 1.85 0 0 1 1.855-1.854c1.055 0 1.854.827 1.854 1.854"/>
</svg>
